remix/Development/git-commit-line.svg

<svg viewBox="0 0 24 24" fill="currentColor" xmlns="http://www.w3.org/2000/svg"><path d="M15.874 13C15.4299 14.7252 13.8638 16 12 16C10.1362 16 8.57006 14.7252 8.12602 13H3V11H8.12602C8.57006 9.27477 10.1362 8 12 8C13.8638 8 15.4299 9.27477 15.874 11H21V13H15.874ZM12 14C13.1046 14 14 13.1046 14 12C14 10.8954 13.1046 10 12 10C10.8954 10 10 10.8954 10 12C10 13.1046 10.8954 14 12 14Z"/></svg>

<svg viewBox="0 0 24 24" xmlns="http://www.w3.org/2000/svg"><path fill="none" d="M0 0h24v24H0Z"/><path d="M15.874 13l-.001 0c-.56 2.13-2.74 3.42-4.88 2.86 -1.41-.37-2.51-1.47-2.87-2.87H2.99v-2h5.12 0c.55-2.14 2.73-3.43 4.87-2.87 1.4.36 2.5 1.46 2.86 2.86h5.12v2h-5.13Zm-3.88 1v0c1.1 0 2-.9 2-2 0-1.11-.9-2-2-2v0c-1.11 0-2 .89-2 2 0 1.1.89 2 2 2Z"/></svg>
